X: 42747
T: White Hare, The
R: slip jig
M: 9/8
K: Bminor
|:B2a fec efa|AcA BAF EFE|CEA FEC EFA|
B2a fec efa|AcA BAF EBc|1 dcB cAF EFA:|2 dfe cBA B2c||
|:A2F FAF ECE|FcB AFE FAB|A2F FAF ECE|1 Ffe cBA B2c:|2 Ffe cBA B2A||

